assets/img/icons/duotone-icons/Clothes/Tie.svg

<?xml version="1.0" encoding="UTF-8"?>
<svg width="24px" height="24px" viewBox="0 0 24 24" version="1.1" xmlns="http://www.w3.org/2000/svg" xmlns:xlink="http://www.w3.org/1999/xlink">
    <!-- Generator: Sketch 52.2 (67145) - http://www.bohemiancoding.com/sketch -->
    <title>Stockholm-icons / Clothes / Tie</title>
    <desc>Created with Sketch.</desc>
    <g id="Stockholm-icons-/-Clothes-/-Tie" stroke="none" stroke-width="1" fill="none" fill-rule="evenodd">
        <rect id="bound" x="0" y="0" width="24" height="24"></rect>
        <path d="M14.1124454,7.00625159 C14.0755336,7.00212117 14.0380145,7 14,7 L10,7 C9.96198549,7 9.92446641,7.00212117 9.88755465,7.00625159 L7.34761705,4.55799196 C6.95060373,4.17530866 6.9382927,3.54346816 7.32009765,3.14561006 L8.41948359,2 L15.5805164,2 L16.6799023,3.14561006 C17.0617073,3.54346816 17.0493963,4.17530866 16.6523829,4.55799196 L14.1124454,7.00625159 Z" id="Combined-Shape" fill="#335EEA"></path>
        <path d="M13.7640285,9 L15.4853424,18.1494183 C15.5450675,18.4668794 15.4477627,18.7936387 15.2240963,19.0267093 L12.7215131,21.6345146 C12.7120098,21.6444174 12.7023037,21.6541236 12.6924008,21.6636269 C12.2939201,22.0460293 11.6608893,22.0329953 11.2784869,21.6345146 L8.77590372,19.0267093 C8.55223728,18.7936387 8.45493249,18.4668794 8.5146576,18.1494183 L10.2359715,9 L13.7640285,9 Z" id="Path" fill="#335EEA" opacity="0.3"></path>
    </g>
</svg>

<svg width="24" height="24" viewBox="0 0 24 24" xmlns="http://www.w3.org/2000/svg"><g fill="none" fill-rule="evenodd"><path d="M0 0h24v24H0z"/><path d="M14.112 7.006A1.01 1.01 0 0014 7h-4a1.01 1.01 0 00-.112.006l-2.54-2.448a1 1 0 01-.028-1.412L8.42 2h7.16l1.1 1.146a1 1 0 01-.028 1.412l-2.54 2.448z" fill="#335EEA"/><path d="M13.764 9l1.721 9.15a1 1 0 01-.26.877l-2.503 2.608a1 1 0 01-1.444 0l-2.502-2.608a1 1 0 01-.261-.878L10.236 9h3.528z" fill="#335EEA" opacity=".3"/></g></svg>
